report_00007_2020-12-11T15:55:29.892Z/bootup-time/samples/pages+cached+noadtech/raw/sorted.svg

<svg width="640" height="490" xmlns="http://www.w3.org/2000/svg" xmlns:xlink="http://www.w3.org/1999/xlink"><path fill="#fff" d="M0 0h640v490H0z"/><defs><path id="d" stroke-width=".222" stroke="currentColor" d="M-1-1h2v2h-2z"/><path id="b" stroke-width=".222" stroke="currentColor" d="M0-1.33l-1.33 2h2.66z"/><path id="f" stroke-width=".222" stroke="currentColor" d="M0 1.33L1.265.411.782-1.067l-1.564-.009-.483 1.487z"/><use xlink:href="#b" id="c" stroke="currentColor" transform="rotate(180)"/><use xlink:href="#d" id="e" stroke="currentColor" transform="rotate(45)"/><circle id="a" stroke-width=".222" stroke="currentColor" cx="0" cy="0" r="1"/></defs><g fill="none" color="#000" stroke="currentColor"><path stroke="#000" d="M45.6 419.2h9m560.4 0h-9"/><text transform="translate(37.3 423.1)" stroke="none" fill="#000" font-family="Arial" font-size="12" text-anchor="end"><tspan>38</tspan></text></g><g fill="none" color="#000" stroke="currentColor"><path stroke="#000" d="M45.6 361.9h9m560.4 0h-9"/><text transform="translate(37.3 365.8)" stroke="none" fill="#000" font-family="Arial" font-size="12" text-anchor="end"><tspan>39</tspan></text></g><g fill="none" color="#000" stroke="currentColor"><path stroke="#000" d="M45.6 304.5h9m560.4 0h-9"/><text transform="translate(37.3 308.4)" stroke="none" fill="#000" font-family="Arial" font-size="12" text-anchor="end"><tspan>40</tspan></text></g><g fill="none" color="#000" stroke="currentColor"><path stroke="#000" d="M45.6 247.1h9m560.4 0h-9"/><text transform="translate(37.3 251)" stroke="none" fill="#000" font-family="Arial" font-size="12" text-anchor="end"><tspan>41</tspan></text></g><g fill="none" color="#000" stroke="currentColor"><path stroke="#000" d="M45.6 189.8h9m560.4 0h-9"/><text transform="translate(37.3 193.7)" stroke="none" fill="#000" font-family="Arial" font-size="12" text-anchor="end"><tspan>42</tspan></text></g><g fill="none" color="#000" stroke="currentColor"><path stroke="#000" d="M45.6 132.4h9m560.4 0h-9"/><text transform="translate(37.3 136.3)" stroke="none" fill="#000" font-family="Arial" font-size="12" text-anchor="end"><tspan>43</tspan></text></g><g fill="none" color="#000" stroke="currentColor"><path stroke="#000" d="M45.6 75h9M615 75h-9"/><text transform="translate(37.3 78.9)" stroke="none" fill="#000" font-family="Arial" font-size="12" text-anchor="end"><tspan>44</tspan></text></g><g fill="none" color="#000" stroke="currentColor"><path stroke="#000" d="M45.6 17.6h9m560.4 0h-9"/><text transform="translate(37.3 21.5)" stroke="none" fill="#000" font-family="Arial" font-size="12" text-anchor="end"><tspan>45</tspan></text></g><g fill="none" color="#000" stroke="currentColor"><path stroke="#000" d="M45.6 436v-9m0-408.9v9"/><text transform="translate(45.6 457.9)" stroke="none" fill="#000" font-family="Arial" font-size="12" text-anchor="middle"><tspan>0</tspan></text></g><g fill="none" color="#000" stroke="currentColor"><path stroke="#000" d="M103.1 436v-9m0-408.9v9"/><text transform="translate(103.1 457.9)" stroke="none" fill="#000" font-family="Arial" font-size="12" text-anchor="middle"><tspan>10</tspan></text></g><g fill="none" color="#000" stroke="currentColor"><path stroke="#000" d="M160.6 436v-9m0-408.9v9"/><text transform="translate(160.6 457.9)" stroke="none" fill="#000" font-family="Arial" font-size="12" text-anchor="middle"><tspan>20</tspan></text></g><g fill="none" color="#000" stroke="currentColor"><path stroke="#000" d="M218.1 436v-9m0-408.9v9"/><text transform="translate(218.1 457.9)" stroke="none" fill="#000" font-family="Arial" font-size="12" text-anchor="middle"><tspan>30</tspan></text></g><g fill="none" color="#000" stroke="currentColor"><path stroke="#000" d="M275.7 436v-9m0-408.9v9"/><text transform="translate(275.7 457.9)" stroke="none" fill="#000" font-family="Arial" font-size="12" text-anchor="middle"><tspan>40</tspan></text></g><g fill="none" color="#000" stroke="currentColor"><path stroke="#000" d="M333.2 436v-9m0-408.9v9"/><text transform="translate(333.2 457.9)" stroke="none" fill="#000" font-family="Arial" font-size="12" text-anchor="middle"><tspan>50</tspan></text></g><g fill="none" color="#000" stroke="currentColor"><path stroke="#000" d="M390.7 436v-9m0-408.9v9"/><text transform="translate(390.7 457.9)" stroke="none" fill="#000" font-family="Arial" font-size="12" text-anchor="middle"><tspan>60</tspan></text></g><g fill="none" color="#000" stroke="currentColor"><path stroke="#000" d="M448.2 436v-9m0-408.9v9"/><text transform="translate(448.2 457.9)" stroke="none" fill="#000" font-family="Arial" font-size="12" text-anchor="middle"><tspan>70</tspan></text></g><g fill="none" color="#000" stroke="currentColor"><path stroke="#000" d="M505.7 436v-9m0-408.9v9"/><text transform="translate(505.7 457.9)" stroke="none" fill="#000" font-family="Arial" font-size="12" text-anchor="middle"><tspan>80</tspan></text></g><g fill="none" color="#000" stroke="currentColor"><path stroke="#000" d="M563.2 436v-9m0-408.9v9"/><text transform="translate(563.2 457.9)" stroke="none" fill="#000" font-family="Arial" font-size="12" text-anchor="middle"><tspan>90</tspan></text></g><path stroke="#000" d="M45.6 18.1V436H615V18.1H45.6z" fill="none" color="#000"/><text transform="translate(171.5 475.9)" stroke="none" fill="#000" font-family="Arial" font-size="12" text-anchor="end" color="#000"><tspan>raw</tspan></text><path stroke="#9400D3" d="M179.8 472H222M45.6 428l5.8-46.4 5.7-6 5.8-3.9 5.7-7.3 5.8-3.7 5.7-23.6 5.8-2.1 5.7-10.3 5.8-1.2 5.7-1.1 5.8-2.1 5.7-3.9 5.8-.7 5.7-.6h5.8l5.7-.5 5.8-2.5 5.7-.7 5.8-.9h5.7l5.8-3.2h5.7l5.8-.3 5.7-5.3h5.8l5.7-.9 5.8-1.3 5.7-2.8 5.8-.7 5.7-.4 5.8-2.1 5.7-2.5 5.8-.5 5.8-.5 5.7-1.6 5.8-.2 5.7-.2 5.8-.3 5.7-1.8 5.8-2.5 5.7-1.4 5.8-.7 5.7-.2 5.8-1.6 5.7-.7 5.8-2.3 5.7-.2 5.8-.3 5.7-6.8 5.8-.3 5.7-.7 5.8-1.6 5.7-1.6 5.8-.2 5.7-1.4 5.8-.2 5.7-1.2 5.8-1.8 5.7-4.8 5.8-.2 5.7-.5 5.8-.5 5.7-.4 5.8-.2 5.7-1.7 5.8-1.1 5.8-2.3 5.7-.2 5.8-.5 5.7-.4 5.8-3.3 5.7-.2 5.8-.4 5.7-2.6 5.8-.7 5.7-.6 5.8-5.8h5.7l5.8-1.6 5.7-.9 5.8-.9 5.7-8.5 5.8-.5 5.7-3.4 5.8-3.7 5.7-1.1 5.8-1.2 5.7-.2 5.8-.9 5.7-5.1 5.8-3 5.7-1.8h5.8l5.7-.5 5.8-8.7 5.7-12.4 5.8-24.1 5.7-32.3 5.8-96.9" fill="none" color="#000"/><text transform="translate(371.4 475.9)" stroke="none" fill="#000" font-family="Arial" font-size="12" text-anchor="end" color="#000"><tspan>score p10=1282</tspan></text><path stroke="#009E73" d="M379.7 472h42.2" fill="none" color="#000"/><text transform="translate(571.3 475.9)" stroke="none" fill="#000" font-family="Arial" font-size="12" text-anchor="end" color="#000"><tspan>score median=3500</tspan></text><path stroke="#56B4E9" d="M579.6 472h42.2" fill="none" color="#000"/><g fill="none" color="#000" stroke="currentColor"><path stroke="#000" d="M45.6 18.1V436H615V18.1H45.6z"/></g></svg>

<?xml version="1.0" encoding="utf-8"  standalone="no"?>
<svg 
 width="640" height="490"
 viewBox="0 0 640 490"
 xmlns="http://www.w3.org/2000/svg"
 xmlns:xlink="http://www.w3.org/1999/xlink"
>

<title>Gnuplot</title>
<desc>Produced by GNUPLOT 5.4 patchlevel 0 </desc>

<g id="gnuplot_canvas">

<rect x="0" y="0" width="640" height="490" fill="#ffffff"/>
<defs>

	<circle id='gpDot' r='0.5' stroke-width='0.5' stroke='currentColor'/>
	<path id='gpPt0' stroke-width='0.222' stroke='currentColor' d='M-1,0 h2 M0,-1 v2'/>
	<path id='gpPt1' stroke-width='0.222' stroke='currentColor' d='M-1,-1 L1,1 M1,-1 L-1,1'/>
	<path id='gpPt2' stroke-width='0.222' stroke='currentColor' d='M-1,0 L1,0 M0,-1 L0,1 M-1,-1 L1,1 M-1,1 L1,-1'/>
	<rect id='gpPt3' stroke-width='0.222' stroke='currentColor' x='-1' y='-1' width='2' height='2'/>
	<rect id='gpPt4' stroke-width='0.222' stroke='currentColor' fill='currentColor' x='-1' y='-1' width='2' height='2'/>
	<circle id='gpPt5' stroke-width='0.222' stroke='currentColor' cx='0' cy='0' r='1'/>
	<use xlink:href='#gpPt5' id='gpPt6' fill='currentColor' stroke='none'/>
	<path id='gpPt7' stroke-width='0.222' stroke='currentColor' d='M0,-1.33 L-1.33,0.67 L1.33,0.67 z'/>
	<use xlink:href='#gpPt7' id='gpPt8' fill='currentColor' stroke='none'/>
	<use xlink:href='#gpPt7' id='gpPt9' stroke='currentColor' transform='rotate(180)'/>
	<use xlink:href='#gpPt9' id='gpPt10' fill='currentColor' stroke='none'/>
	<use xlink:href='#gpPt3' id='gpPt11' stroke='currentColor' transform='rotate(45)'/>
	<use xlink:href='#gpPt11' id='gpPt12' fill='currentColor' stroke='none'/>
	<path id='gpPt13' stroke-width='0.222' stroke='currentColor' d='M0,1.330 L1.265,0.411 L0.782,-1.067 L-0.782,-1.076 L-1.265,0.411 z'/>
	<use xlink:href='#gpPt13' id='gpPt14' fill='currentColor' stroke='none'/>
	<filter id='textbox' filterUnits='objectBoundingBox' x='0' y='0' height='1' width='1'>
	  <feFlood flood-color='#FFFFFF' flood-opacity='1' result='bgnd'/>
	  <feComposite in='SourceGraphic' in2='bgnd' operator='atop'/>
	</filter>
	<filter id='greybox' filterUnits='objectBoundingBox' x='0' y='0' height='1' width='1'>
	  <feFlood flood-color='lightgrey' flood-opacity='1' result='grey'/>
	  <feComposite in='SourceGraphic' in2='grey' operator='atop'/>
	</filter>
</defs>
<g fill="none" color="#FFFFFF" stroke="black" stroke-width="1.00" stroke-linecap="butt" stroke-linejoin="miter">
</g>
<g fill="none" color="black" stroke="currentColor" stroke-width="1.00" stroke-linecap="butt" stroke-linejoin="miter">
	<path stroke='black'  d='M45.6,419.2 L54.6,419.2 M615.0,419.2 L606.0,419.2  '/>	<g transform="translate(37.3,423.1)" stroke="none" fill="black" font-family="Arial" font-size="12.00"  text-anchor="end">
		<text><tspan font-family="Arial" > 38</tspan></text>
	</g>
</g>
<g fill="none" color="black" stroke="currentColor" stroke-width="1.00" stroke-linecap="butt" stroke-linejoin="miter">
	<path stroke='black'  d='M45.6,361.9 L54.6,361.9 M615.0,361.9 L606.0,361.9  '/>	<g transform="translate(37.3,365.8)" stroke="none" fill="black" font-family="Arial" font-size="12.00"  text-anchor="end">
		<text><tspan font-family="Arial" > 39</tspan></text>
	</g>
</g>
<g fill="none" color="black" stroke="currentColor" stroke-width="1.00" stroke-linecap="butt" stroke-linejoin="miter">
	<path stroke='black'  d='M45.6,304.5 L54.6,304.5 M615.0,304.5 L606.0,304.5  '/>	<g transform="translate(37.3,308.4)" stroke="none" fill="black" font-family="Arial" font-size="12.00"  text-anchor="end">
		<text><tspan font-family="Arial" > 40</tspan></text>
	</g>
</g>
<g fill="none" color="black" stroke="currentColor" stroke-width="1.00" stroke-linecap="butt" stroke-linejoin="miter">
	<path stroke='black'  d='M45.6,247.1 L54.6,247.1 M615.0,247.1 L606.0,247.1  '/>	<g transform="translate(37.3,251.0)" stroke="none" fill="black" font-family="Arial" font-size="12.00"  text-anchor="end">
		<text><tspan font-family="Arial" > 41</tspan></text>
	</g>
</g>
<g fill="none" color="black" stroke="currentColor" stroke-width="1.00" stroke-linecap="butt" stroke-linejoin="miter">
	<path stroke='black'  d='M45.6,189.8 L54.6,189.8 M615.0,189.8 L606.0,189.8  '/>	<g transform="translate(37.3,193.7)" stroke="none" fill="black" font-family="Arial" font-size="12.00"  text-anchor="end">
		<text><tspan font-family="Arial" > 42</tspan></text>
	</g>
</g>
<g fill="none" color="black" stroke="currentColor" stroke-width="1.00" stroke-linecap="butt" stroke-linejoin="miter">
	<path stroke='black'  d='M45.6,132.4 L54.6,132.4 M615.0,132.4 L606.0,132.4  '/>	<g transform="translate(37.3,136.3)" stroke="none" fill="black" font-family="Arial" font-size="12.00"  text-anchor="end">
		<text><tspan font-family="Arial" > 43</tspan></text>
	</g>
</g>
<g fill="none" color="black" stroke="currentColor" stroke-width="1.00" stroke-linecap="butt" stroke-linejoin="miter">
	<path stroke='black'  d='M45.6,75.0 L54.6,75.0 M615.0,75.0 L606.0,75.0  '/>	<g transform="translate(37.3,78.9)" stroke="none" fill="black" font-family="Arial" font-size="12.00"  text-anchor="end">
		<text><tspan font-family="Arial" > 44</tspan></text>
	</g>
</g>
<g fill="none" color="black" stroke="currentColor" stroke-width="1.00" stroke-linecap="butt" stroke-linejoin="miter">
	<path stroke='black'  d='M45.6,17.6 L54.6,17.6 M615.0,17.6 L606.0,17.6  '/>	<g transform="translate(37.3,21.5)" stroke="none" fill="black" font-family="Arial" font-size="12.00"  text-anchor="end">
		<text><tspan font-family="Arial" > 45</tspan></text>
	</g>
</g>
<g fill="none" color="black" stroke="currentColor" stroke-width="1.00" stroke-linecap="butt" stroke-linejoin="miter">
	<path stroke='black'  d='M45.6,436.0 L45.6,427.0 M45.6,18.1 L45.6,27.1  '/>	<g transform="translate(45.6,457.9)" stroke="none" fill="black" font-family="Arial" font-size="12.00"  text-anchor="middle">
		<text><tspan font-family="Arial" > 0</tspan></text>
	</g>
</g>
<g fill="none" color="black" stroke="currentColor" stroke-width="1.00" stroke-linecap="butt" stroke-linejoin="miter">
	<path stroke='black'  d='M103.1,436.0 L103.1,427.0 M103.1,18.1 L103.1,27.1  '/>	<g transform="translate(103.1,457.9)" stroke="none" fill="black" font-family="Arial" font-size="12.00"  text-anchor="middle">
		<text><tspan font-family="Arial" > 10</tspan></text>
	</g>
</g>
<g fill="none" color="black" stroke="currentColor" stroke-width="1.00" stroke-linecap="butt" stroke-linejoin="miter">
	<path stroke='black'  d='M160.6,436.0 L160.6,427.0 M160.6,18.1 L160.6,27.1  '/>	<g transform="translate(160.6,457.9)" stroke="none" fill="black" font-family="Arial" font-size="12.00"  text-anchor="middle">
		<text><tspan font-family="Arial" > 20</tspan></text>
	</g>
</g>
<g fill="none" color="black" stroke="currentColor" stroke-width="1.00" stroke-linecap="butt" stroke-linejoin="miter">
	<path stroke='black'  d='M218.1,436.0 L218.1,427.0 M218.1,18.1 L218.1,27.1  '/>	<g transform="translate(218.1,457.9)" stroke="none" fill="black" font-family="Arial" font-size="12.00"  text-anchor="middle">
		<text><tspan font-family="Arial" > 30</tspan></text>
	</g>
</g>
<g fill="none" color="black" stroke="currentColor" stroke-width="1.00" stroke-linecap="butt" stroke-linejoin="miter">
	<path stroke='black'  d='M275.7,436.0 L275.7,427.0 M275.7,18.1 L275.7,27.1  '/>	<g transform="translate(275.7,457.9)" stroke="none" fill="black" font-family="Arial" font-size="12.00"  text-anchor="middle">
		<text><tspan font-family="Arial" > 40</tspan></text>
	</g>
</g>
<g fill="none" color="black" stroke="currentColor" stroke-width="1.00" stroke-linecap="butt" stroke-linejoin="miter">
	<path stroke='black'  d='M333.2,436.0 L333.2,427.0 M333.2,18.1 L333.2,27.1  '/>	<g transform="translate(333.2,457.9)" stroke="none" fill="black" font-family="Arial" font-size="12.00"  text-anchor="middle">
		<text><tspan font-family="Arial" > 50</tspan></text>
	</g>
</g>
<g fill="none" color="black" stroke="currentColor" stroke-width="1.00" stroke-linecap="butt" stroke-linejoin="miter">
	<path stroke='black'  d='M390.7,436.0 L390.7,427.0 M390.7,18.1 L390.7,27.1  '/>	<g transform="translate(390.7,457.9)" stroke="none" fill="black" font-family="Arial" font-size="12.00"  text-anchor="middle">
		<text><tspan font-family="Arial" > 60</tspan></text>
	</g>
</g>
<g fill="none" color="black" stroke="currentColor" stroke-width="1.00" stroke-linecap="butt" stroke-linejoin="miter">
	<path stroke='black'  d='M448.2,436.0 L448.2,427.0 M448.2,18.1 L448.2,27.1  '/>	<g transform="translate(448.2,457.9)" stroke="none" fill="black" font-family="Arial" font-size="12.00"  text-anchor="middle">
		<text><tspan font-family="Arial" > 70</tspan></text>
	</g>
</g>
<g fill="none" color="black" stroke="currentColor" stroke-width="1.00" stroke-linecap="butt" stroke-linejoin="miter">
	<path stroke='black'  d='M505.7,436.0 L505.7,427.0 M505.7,18.1 L505.7,27.1  '/>	<g transform="translate(505.7,457.9)" stroke="none" fill="black" font-family="Arial" font-size="12.00"  text-anchor="middle">
		<text><tspan font-family="Arial" > 80</tspan></text>
	</g>
</g>
<g fill="none" color="black" stroke="currentColor" stroke-width="1.00" stroke-linecap="butt" stroke-linejoin="miter">
	<path stroke='black'  d='M563.2,436.0 L563.2,427.0 M563.2,18.1 L563.2,27.1  '/>	<g transform="translate(563.2,457.9)" stroke="none" fill="black" font-family="Arial" font-size="12.00"  text-anchor="middle">
		<text><tspan font-family="Arial" > 90</tspan></text>
	</g>
</g>
<g fill="none" color="black" stroke="currentColor" stroke-width="1.00" stroke-linecap="butt" stroke-linejoin="miter">
</g>
<g fill="none" color="black" stroke="currentColor" stroke-width="1.00" stroke-linecap="butt" stroke-linejoin="miter">
	<path stroke='black'  d='M45.6,18.1 L45.6,436.0 L615.0,436.0 L615.0,18.1 L45.6,18.1 Z  '/></g>
<g fill="none" color="black" stroke="currentColor" stroke-width="1.00" stroke-linecap="butt" stroke-linejoin="miter">
</g>
	<g id="gnuplot_plot_1" ><title>raw</title>
<g fill="none" color="black" stroke="currentColor" stroke-width="1.00" stroke-linecap="butt" stroke-linejoin="miter">
	<g transform="translate(171.5,475.9)" stroke="none" fill="black" font-family="Arial" font-size="12.00"  text-anchor="end">
		<text><tspan font-family="Arial" >raw</tspan></text>
	</g>
</g>
<g fill="none" color="black" stroke="currentColor" stroke-width="1.00" stroke-linecap="butt" stroke-linejoin="miter">
	<path stroke='rgb(148,   0, 211)'  d='M179.8,472.0 L222.0,472.0 M45.6,428.0 L51.4,381.6 L57.1,375.6 L62.9,371.7 L68.6,364.4 L74.4,360.7
		L80.1,337.1 L85.9,335.0 L91.6,324.7 L97.4,323.5 L103.1,322.4 L108.9,320.3 L114.6,316.4 L120.4,315.7
		L126.1,315.1 L131.9,315.1 L137.6,314.6 L143.4,312.1 L149.1,311.4 L154.9,310.5 L160.6,310.5 L166.4,307.3
		L172.1,307.3 L177.9,307.0 L183.6,301.7 L189.4,301.7 L195.1,300.8 L200.9,299.5 L206.6,296.7 L212.4,296.0
		L218.1,295.6 L223.9,293.5 L229.6,291.0 L235.4,290.5 L241.2,290.0 L246.9,288.4 L252.7,288.2 L258.4,288.0
		L264.2,287.7 L269.9,285.9 L275.7,283.4 L281.4,282.0 L287.2,281.3 L292.9,281.1 L298.7,279.5 L304.4,278.8
		L310.2,276.5 L315.9,276.3 L321.7,276.0 L327.4,269.2 L333.2,268.9 L338.9,268.2 L344.7,266.6 L350.4,265.0
		L356.2,264.8 L361.9,263.4 L367.7,263.2 L373.4,262.0 L379.2,260.2 L384.9,255.4 L390.7,255.2 L396.4,254.7
		L402.2,254.2 L407.9,253.8 L413.7,253.6 L419.4,251.9 L425.2,250.8 L431.0,248.5 L436.7,248.3 L442.5,247.8
		L448.2,247.4 L454.0,244.1 L459.7,243.9 L465.5,243.5 L471.2,240.9 L477.0,240.2 L482.7,239.6 L488.5,233.8
		L494.2,233.8 L500.0,232.2 L505.7,231.3 L511.5,230.4 L517.2,221.9 L523.0,221.4 L528.7,218.0 L534.5,214.3
		L540.2,213.2 L546.0,212.0 L551.7,211.8 L557.5,210.9 L563.2,205.8 L569.0,202.8 L574.7,201.0 L580.5,201.0
		L586.2,200.5 L592.0,191.8 L597.7,179.4 L603.5,155.3 L609.2,123.0 L615.0,26.1  '/></g>
	</g>
	<g id="gnuplot_plot_2" ><title>score p10=1282</title>
<g fill="none" color="black" stroke="currentColor" stroke-width="1.00" stroke-linecap="butt" stroke-linejoin="miter">
	<g transform="translate(371.4,475.9)" stroke="none" fill="black" font-family="Arial" font-size="12.00"  text-anchor="end">
		<text><tspan font-family="Arial" >score p10=1282</tspan></text>
	</g>
</g>
<g fill="none" color="black" stroke="currentColor" stroke-width="1.00" stroke-linecap="butt" stroke-linejoin="miter">
	<path stroke='rgb(  0, 158, 115)'  d='M379.7,472.0 L421.9,472.0  '/></g>
	</g>
	<g id="gnuplot_plot_3" ><title>score median=3500</title>
<g fill="none" color="black" stroke="currentColor" stroke-width="1.00" stroke-linecap="butt" stroke-linejoin="miter">
	<g transform="translate(571.3,475.9)" stroke="none" fill="black" font-family="Arial" font-size="12.00"  text-anchor="end">
		<text><tspan font-family="Arial" >score median=3500</tspan></text>
	</g>
</g>
<g fill="none" color="black" stroke="currentColor" stroke-width="1.00" stroke-linecap="butt" stroke-linejoin="miter">
	<path stroke='rgb( 86, 180, 233)'  d='M579.6,472.0 L621.8,472.0  '/></g>
	</g>
<g fill="none" color="#FFFFFF" stroke="rgb( 86, 180, 233)" stroke-width="2.00" stroke-linecap="butt" stroke-linejoin="miter">
</g>
<g fill="none" color="black" stroke="currentColor" stroke-width="2.00" stroke-linecap="butt" stroke-linejoin="miter">
</g>
<g fill="none" color="black" stroke="black" stroke-width="1.00" stroke-linecap="butt" stroke-linejoin="miter">
</g>
<g fill="none" color="black" stroke="currentColor" stroke-width="1.00" stroke-linecap="butt" stroke-linejoin="miter">
	<path stroke='black'  d='M45.6,18.1 L45.6,436.0 L615.0,436.0 L615.0,18.1 L45.6,18.1 Z  '/></g>
<g fill="none" color="black" stroke="currentColor" stroke-width="1.00" stroke-linecap="butt" stroke-linejoin="miter">
</g>
</g>
</svg>
